Apricity Icons/16/panel/google-tasks-indicator-light-normal.svg

<svg xmlns="http://www.w3.org/2000/svg" width="16" height="16" version="1.1">
 <defs>
  <style id="current-color-scheme" type="text/css">
   .ColorScheme-Text { color:#dfdfdf; } .ColorScheme-Highlight { color:#4285f4; }
  </style>
 </defs>
 <path style="fill:currentColor" class="ColorScheme-Text" d="M 0,1 V 15 H 14 V 8.5 L 12,10.5 V 13 H 2 V 3 H 12 V 5 L 14,3 V 1 Z M 14.26,4.2227 12.736,5.7461 12.729,5.7422 11.91,6.5723 9.3027,9.1797 6.4102,6.252 5.0137,7.6484 7.9062,10.576 7.8965,10.586 9.3105,12 15.674,5.6367 Z"/>
</svg>

<svg xmlns="http://www.w3.org/2000/svg" width="16" height="16"><defs><style id="current-color-scheme" type="text/css"></style></defs><path d="M0 1v14h14V8.5l-2 2V13H2V3h10v2l2-2V1zm14.26 3.223l-1.524 1.523-.007-.004-.819.83L9.303 9.18 6.41 6.252 5.014 7.648l2.892 2.928-.01.01L9.31 12l6.364-6.363z" fill="currentColor" color="#dfdfdf"/></svg>
